X: 42768
T: White Petticoat, The
R: jig
M: 6/8
K: Eminor
|:B|"Em" ~e3 cBA|"Em"GGF EFG|"Bm"~F3 cBB|"Bm"F^DF cBA|
"Em" Bed cBA|"Em"GGF EFG|"Bm"F2B cBA|"Em" GED E2:|
|:f|"C" gec Gce|"C" f~g3 fe|"Am" cBA EA/B/c|"Em" Be^d eBG|
"Bm" ~F3 "G"~G3|"Bm" FBA "G"GFE|"Em" Beg "Am" c'b/_b/a|"Em"ged e2:|

